assets/illustrations/default/Robot.svg

<svg width="1080" height="1080" fill="none" xmlns="http://www.w3.org/2000/svg"><path fill-rule="evenodd" clip-rule="evenodd" d="M294.703 701.662c-94.267 36.887-168.6-6.572-195.372-35.19l33.201-31.059c17.176 18.361 72.565 52.492 145.604 23.912l16.567 42.337Zm518.047-14.857c101.16-3.69 152.047-73.15 165.213-110.06l-42.821-15.274c-8.447 23.681-45.67 77.042-124.049 79.901l1.657 45.433Z" fill="#F66689"/><path d="M368.254 675.947c0 31.386-25.444 56.829-56.829 56.829-31.386 0-56.83-25.443-56.83-56.829s25.444-56.829 56.83-56.829c31.385 0 56.829 25.443 56.829 56.829Zm363.706.002c0 31.386 25.443 56.83 56.829 56.83s56.829-25.444 56.829-56.83-25.443-56.829-56.829-56.829-56.829 25.443-56.829 56.829Z" fill="#E55A89"/><path fill-rule="evenodd" clip-rule="evenodd" d="M454.635 919.177c17.576 0 31.824-14.249 31.824-31.825s-14.248-31.824-31.824-31.824-31.825 14.248-31.825 31.824 14.249 31.825 31.825 31.825Zm0 27.278c32.641 0 59.102-26.461 59.102-59.103 0-32.641-26.461-59.102-59.102-59.102-32.642 0-59.103 26.461-59.103 59.102 0 32.642 26.461 59.103 59.103 59.103Zm195.493-27.278c17.576 0 31.824-14.249 31.824-31.825s-14.248-31.824-31.824-31.824-31.825 14.248-31.825 31.824 14.249 31.825 31.825 31.825Zm0 27.278c32.641 0 59.102-26.461 59.102-59.103 0-32.641-26.461-59.102-59.102-59.102-32.642 0-59.103 26.461-59.103 59.102 0 32.642 26.461 59.103 59.103 59.103Z" fill="#2C2A46"/><path d="M450.088 837.342h200.04v122.752c0 55.236-44.781 100.016-100.02 100.016s-100.02-44.78-100.02-100.016V837.342Z" fill="#B9CBD3"/><path fill-rule="evenodd" clip-rule="evenodd" d="M493.279 928.269a9.092 9.092 0 0 1 9.092-9.092h102.293a9.093 9.093 0 1 1 0 18.185H502.371a9.093 9.093 0 0 1-9.092-9.093Zm0 45.464a9.093 9.093 0 0 1 9.092-9.093h102.293a9.093 9.093 0 1 1 0 18.185H502.371a9.092 9.092 0 0 1-9.092-9.092Z" fill="#8CA0B3"/><path d="M309.151 587.293c0-10.043 8.142-18.185 18.186-18.185h445.542c10.043 0 18.185 8.142 18.185 18.185v231.864c0 30.13-24.426 54.556-54.556 54.556h-372.8c-30.131 0-54.557-24.426-54.557-54.556V587.293Z" fill="#F66689"/><path d="M571.407 76.713h-26.889v89.636h26.889V76.713Z" fill="#E55A89"/><path d="M557.971 103.337c23.288 0 42.168-18.88 42.168-42.169 0-23.289-18.88-42.168-42.168-42.168-23.289 0-42.169 18.88-42.169 42.168 0 23.29 18.88 42.169 42.169 42.169Z" fill="#F66689"/><path d="M755.769 360.45a203.126 203.126 0 0 0-10.23-63.732h57.579a37.723 37.723 0 0 1 37.724 37.724v73.094a37.726 37.726 0 0 1-37.724 37.724h-47.336l-.013-84.81Zm-407.021 0a203.51 203.51 0 0 1 10.23-63.732h-57.566a37.71 37.71 0 0 0-37.724 37.724v73.094a37.713 37.713 0 0 0 37.724 37.724h47.336v-84.81Z" fill="#E55A89"/><path d="M552.461 156.736a203.71 203.71 0 0 1 188.208 125.756 203.71 203.71 0 0 1 15.507 77.959v93.238a47.795 47.795 0 0 1-47.796 47.796H396.595a47.8 47.8 0 0 1-47.796-47.796v-93.238a203.718 203.718 0 0 1 203.662-203.715Z" fill="#2C2A46"/><path d="M708.393 528.373H396.595a74.761 74.761 0 0 1-74.685-74.672V360.45c0-127.149 103.455-230.604 230.604-230.604 127.149 0 230.604 103.455 230.604 230.604v93.251a74.751 74.751 0 0 1-74.725 74.672ZM552.461 183.624c-97.498 0-176.825 79.327-176.825 176.826v93.251a20.917 20.917 0 0 0 20.959 20.894h311.851a20.923 20.923 0 0 0 20.893-20.894V360.45c-.079-97.551-79.379-176.826-176.878-176.826Z" fill="#F66689"/><path d="M485.245 334.979c12.969 0 23.483-10.514 23.483-23.484 0-12.97-10.514-23.484-23.483-23.484-12.97 0-23.484 10.514-23.484 23.484 0 12.97 10.514 23.484 23.484 23.484Zm134.447 0c12.97 0 23.484-10.514 23.484-23.484 0-12.97-10.514-23.484-23.484-23.484-12.969 0-23.484 10.514-23.484 23.484 0 12.97 10.515 23.484 23.484 23.484Zm-105.084 50.808h86.782v2.63a43.39 43.39 0 0 1-74.073 30.682 43.394 43.394 0 0 1-12.709-30.682v-2.63Z" fill="#DAF2F4"/><path fill-rule="evenodd" clip-rule="evenodd" d="M56.83 560.015c0-10.043 8.141-18.185 18.185-18.185 41.429 0 75.014 33.585 75.014 75.015 0 41.429-33.585 75.014-75.014 75.014C33.585 691.859 0 658.274 0 616.845c0-10.044 8.142-18.186 18.185-18.186 10.044 0 18.186 8.142 18.186 18.186 0 21.342 17.301 38.644 38.644 38.644 21.342 0 38.644-17.302 38.644-38.644 0-21.343-17.302-38.644-38.644-38.644-10.044 0-18.186-8.142-18.186-18.186Zm899.563-104.366c-5.918-8.114-17.294-9.894-25.408-3.976-33.473 24.413-40.817 71.339-16.404 104.811 24.414 33.472 71.339 40.816 104.809 16.403 33.47-24.413 40.82-71.339 16.41-104.811-5.92-8.114-17.3-9.895-25.41-3.976-8.12 5.918-9.9 17.294-3.98 25.408 12.58 17.244 8.79 41.417-8.45 53.994-17.243 12.576-41.417 8.793-53.993-8.45-12.577-17.244-8.793-41.417 8.45-53.994 8.114-5.918 9.895-17.294 3.976-25.409Z" fill="#F66689"/><path d="M491.005 719.137c0 20.087-16.284 36.371-36.371 36.371-20.087 0-36.37-16.284-36.37-36.371 0-20.087 16.283-36.37 36.37-36.37 20.087 0 36.371 16.283 36.371 36.37Zm95.474.001c0 20.087-16.284 36.371-36.371 36.371-20.087 0-36.371-16.284-36.371-36.371 0-20.087 16.284-36.371 36.371-36.371 20.087 0 36.371 16.284 36.371 36.371Zm95.472 0c0 20.087-16.283 36.371-36.37 36.371-20.087 0-36.371-16.284-36.371-36.371 0-20.087 16.284-36.371 36.371-36.371 20.087 0 36.37 16.284 36.37 36.371Z" fill="#FDD9E1"/><path fill-rule="evenodd" clip-rule="evenodd" d="M495.552 550.923a9.093 9.093 0 0 1 9.092-9.093h106.84a9.093 9.093 0 0 1 0 18.185h-106.84a9.092 9.092 0 0 1-9.092-9.092Z" fill="#E55A89"/></svg>

<svg width="1080" height="1080" viewBox="0 0 1080 1080" fill="none" xmlns="http://www.w3.org/2000/svg">
<path fill-rule="evenodd" clip-rule="evenodd" d="M294.703 701.662C200.436 738.549 126.103 695.09 99.3311 666.472L132.532 635.413C149.708 653.774 205.097 687.905 278.136 659.325L294.703 701.662Z" fill="#F66689"/>
<path fill-rule="evenodd" clip-rule="evenodd" d="M812.75 686.805C913.91 683.115 964.797 613.655 977.963 576.745L935.142 561.471C926.695 585.152 889.472 638.513 811.093 641.372L812.75 686.805Z" fill="#F66689"/>
<path d="M368.254 675.947C368.254 707.333 342.81 732.776 311.425 732.776C280.039 732.776 254.595 707.333 254.595 675.947C254.595 644.561 280.039 619.118 311.425 619.118C342.81 619.118 368.254 644.561 368.254 675.947Z" fill="#E55A89"/>
<path d="M731.96 675.949C731.96 707.335 757.403 732.779 788.789 732.779C820.175 732.779 845.618 707.335 845.618 675.949C845.618 644.563 820.175 619.12 788.789 619.12C757.403 619.12 731.96 644.563 731.96 675.949Z" fill="#E55A89"/>
<path fill-rule="evenodd" clip-rule="evenodd" d="M454.635 919.177C472.211 919.177 486.459 904.928 486.459 887.352C486.459 869.776 472.211 855.528 454.635 855.528C437.059 855.528 422.81 869.776 422.81 887.352C422.81 904.928 437.059 919.177 454.635 919.177ZM454.635 946.455C487.276 946.455 513.737 919.994 513.737 887.352C513.737 854.711 487.276 828.25 454.635 828.25C421.993 828.25 395.532 854.711 395.532 887.352C395.532 919.994 421.993 946.455 454.635 946.455Z" fill="#2C2A46"/>
<path fill-rule="evenodd" clip-rule="evenodd" d="M650.128 919.177C667.704 919.177 681.952 904.928 681.952 887.352C681.952 869.776 667.704 855.528 650.128 855.528C632.552 855.528 618.303 869.776 618.303 887.352C618.303 904.928 632.552 919.177 650.128 919.177ZM650.128 946.455C682.769 946.455 709.23 919.994 709.23 887.352C709.23 854.711 682.769 828.25 650.128 828.25C617.486 828.25 591.025 854.711 591.025 887.352C591.025 919.994 617.486 946.455 650.128 946.455Z" fill="#2C2A46"/>
<path d="M450.088 837.342H650.128V960.094C650.128 1015.33 605.347 1060.11 550.108 1060.11C494.869 1060.11 450.088 1015.33 450.088 960.094V837.342Z" fill="#B9CBD3"/>
<path fill-rule="evenodd" clip-rule="evenodd" d="M493.279 928.269C493.279 923.248 497.35 919.177 502.371 919.177H604.664C609.686 919.177 613.757 923.248 613.757 928.269C613.757 933.291 609.686 937.362 604.664 937.362H502.371C497.35 937.362 493.279 933.291 493.279 928.269Z" fill="#8CA0B3"/>
<path fill-rule="evenodd" clip-rule="evenodd" d="M493.279 973.733C493.279 968.711 497.35 964.64 502.371 964.64H604.664C609.686 964.64 613.757 968.711 613.757 973.733C613.757 978.754 609.686 982.825 604.664 982.825H502.371C497.35 982.825 493.279 978.754 493.279 973.733Z" fill="#8CA0B3"/>
<path d="M309.151 587.293C309.151 577.25 317.293 569.108 327.337 569.108H772.879C782.922 569.108 791.064 577.25 791.064 587.293V819.157C791.064 849.287 766.638 873.713 736.508 873.713H363.708C333.577 873.713 309.151 849.287 309.151 819.157V587.293Z" fill="#F66689"/>
<path d="M571.407 76.7131H544.518V166.349H571.407V76.7131Z" fill="#E55A89"/>
<path d="M557.971 103.337C581.259 103.337 600.139 84.4571 600.139 61.1682C600.139 37.8793 581.259 19 557.971 19C534.682 19 515.802 37.8793 515.802 61.1682C515.802 84.4571 534.682 103.337 557.971 103.337Z" fill="#F66689"/>
<path d="M755.769 360.45C755.778 338.797 752.324 317.281 745.539 296.718H803.118C813.123 296.718 822.718 300.692 829.793 307.767C836.867 314.842 840.842 324.437 840.842 334.442V407.536C840.842 417.541 836.867 427.137 829.793 434.211C822.718 441.286 813.123 445.26 803.118 445.26H755.782L755.769 360.45Z" fill="#E55A89"/>
<path d="M348.748 360.45C348.746 338.797 352.199 317.283 358.978 296.718H301.412C296.458 296.716 291.552 297.691 286.974 299.586C282.396 301.481 278.237 304.26 274.734 307.763C271.23 311.267 268.452 315.426 266.557 320.004C264.661 324.581 263.687 329.488 263.688 334.442V407.536C263.687 412.491 264.661 417.397 266.557 421.975C268.452 426.552 271.23 430.712 274.734 434.215C278.237 437.718 282.396 440.497 286.974 442.392C291.552 444.287 296.458 445.262 301.412 445.26H348.748V360.45Z" fill="#E55A89"/>
<path d="M552.462 156.736C579.214 156.736 605.704 162.005 630.42 172.243C655.135 182.48 677.593 197.486 696.51 216.403C715.426 235.319 730.432 257.777 740.669 282.492C750.907 307.208 756.176 333.698 756.176 360.451V453.689C756.176 466.365 751.141 478.522 742.177 487.486C733.214 496.449 721.056 501.485 708.38 501.485H396.595C383.919 501.485 371.762 496.449 362.798 487.486C353.835 478.522 348.799 466.365 348.799 453.689V360.451C348.799 306.431 370.255 254.624 408.447 216.421C446.64 178.219 498.442 156.75 552.462 156.736Z" fill="#2C2A46"/>
<path d="M708.393 528.373H396.595C376.796 528.353 357.814 520.479 343.812 506.48C329.811 492.481 321.934 473.5 321.91 453.701V360.45C321.91 233.301 425.365 129.846 552.514 129.846C679.663 129.846 783.118 233.301 783.118 360.45V453.701C783.097 473.508 775.216 492.497 761.205 506.498C747.195 520.499 728.2 528.367 708.393 528.373ZM552.461 183.624C454.963 183.624 375.636 262.951 375.636 360.45V453.701C375.639 456.45 376.184 459.17 377.239 461.708C378.295 464.246 379.84 466.55 381.786 468.491C383.733 470.431 386.042 471.969 388.583 473.016C391.124 474.064 393.847 474.6 396.595 474.595H708.446C713.985 474.588 719.295 472.384 723.212 468.468C727.129 464.551 729.332 459.24 729.339 453.701V360.45C729.26 262.899 649.96 183.624 552.461 183.624Z" fill="#F66689"/>
<path d="M485.245 334.979C498.214 334.979 508.728 324.465 508.728 311.495C508.728 298.525 498.214 288.011 485.245 288.011C472.275 288.011 461.761 298.525 461.761 311.495C461.761 324.465 472.275 334.979 485.245 334.979Z" fill="#DAF2F4"/>
<path d="M619.692 334.979C632.662 334.979 643.176 324.465 643.176 311.495C643.176 298.525 632.662 288.011 619.692 288.011C606.723 288.011 596.208 298.525 596.208 311.495C596.208 324.465 606.723 334.979 619.692 334.979Z" fill="#DAF2F4"/>
<path d="M514.608 385.787H601.39V388.417C601.39 399.925 596.819 410.961 588.681 419.099C580.544 427.236 569.507 431.808 557.999 431.808C546.491 431.808 535.454 427.236 527.317 419.099C519.18 410.961 514.608 399.925 514.608 388.417V385.787Z" fill="#DAF2F4"/>
<path fill-rule="evenodd" clip-rule="evenodd" d="M56.8293 560.015C56.8293 549.972 64.9712 541.83 75.0147 541.83C116.444 541.83 150.029 575.415 150.029 616.845C150.029 658.274 116.444 691.859 75.0147 691.859C33.5852 691.859 0 658.274 0 616.845C0 606.801 8.14187 598.659 18.1854 598.659C28.2289 598.659 36.3708 606.801 36.3708 616.845C36.3708 638.187 53.6722 655.489 75.0147 655.489C96.3572 655.489 113.659 638.187 113.659 616.845C113.659 595.502 96.3572 578.201 75.0147 578.201C64.9712 578.201 56.8293 570.059 56.8293 560.015Z" fill="#F66689"/>
<path fill-rule="evenodd" clip-rule="evenodd" d="M956.393 455.649C950.475 447.535 939.099 445.755 930.985 451.673C897.512 476.086 890.168 523.012 914.581 556.484C938.995 589.956 985.92 597.3 1019.39 572.887C1052.86 548.474 1060.21 501.548 1035.8 468.076C1029.88 459.962 1018.5 458.181 1010.39 464.1C1002.27 470.018 1000.49 481.394 1006.41 489.508C1018.99 506.752 1015.2 530.925 997.96 543.502C980.717 556.078 956.543 552.295 943.967 535.052C931.39 517.808 935.174 493.635 952.417 481.058C960.531 475.14 962.312 463.764 956.393 455.649Z" fill="#F66689"/>
<path d="M491.005 719.137C491.005 739.224 474.721 755.508 454.634 755.508C434.547 755.508 418.264 739.224 418.264 719.137C418.264 699.05 434.547 682.767 454.634 682.767C474.721 682.767 491.005 699.05 491.005 719.137Z" fill="#FDD9E1"/>
<path d="M586.479 719.138C586.479 739.225 570.195 755.509 550.108 755.509C530.021 755.509 513.737 739.225 513.737 719.138C513.737 699.051 530.021 682.767 550.108 682.767C570.195 682.767 586.479 699.051 586.479 719.138Z" fill="#FDD9E1"/>
<path d="M681.951 719.138C681.951 739.225 665.668 755.509 645.581 755.509C625.494 755.509 609.21 739.225 609.21 719.138C609.21 699.051 625.494 682.767 645.581 682.767C665.668 682.767 681.951 699.051 681.951 719.138Z" fill="#FDD9E1"/>
<path fill-rule="evenodd" clip-rule="evenodd" d="M495.552 550.923C495.552 545.901 499.623 541.83 504.644 541.83H611.484C616.505 541.83 620.576 545.901 620.576 550.923C620.576 555.945 616.505 560.015 611.484 560.015H504.644C499.623 560.015 495.552 555.945 495.552 550.923Z" fill="#E55A89"/>
</svg>
